X:1
T:IV
T:IV
L:1/8
Q:1/4=40
M:2/4
K:Eb
V:1 treble nm="Violin" snm="Vln."
V:1
 c2- c/G/c/d/ | [ce]2- [ce]/[Gd]/[ce]/[df]/ | [eg]2- [eg]/[df]/[ce]/[=Bd]/ | %3
 [ce]2 [=Bd]/[G,G]/[A,A]/[G,G]/ | [A,A]2- [A,A]/[cc']/[Bb]/[Aa]/ | [Gg]2- [Gg]/[G,G]/[A,A]/[G,G]/ | %6
 [A,^F]2- [A,F]/[A,Fe]/[A,Fd]/[A,Fc]/ | [G,-G-c]2 [G,G=B]/[DBg]/[DBa]/[DBg]/ | %8
 [Ecg]2 c'/[D=Bg]/[DBa]/[DBg]/ | [Ecg]2 c'/[_DAa]/[DAf]/[DA_d]/ | %10
 [Cc]2 [G,d]/[G,Gc]/[G,Gd]/[G,Ge]/ | [CGd]2 [CGc] z | %12
 (3.[CE]/.[DF]/.[EG]/(3.[FA]/.[G=B]/.[=Ac]/ (3.[Bd]/.[ce]/.[df]/(3.[eg]/.[fa]/.[d=b]/ | %13
 (3.[cc']/.C/.[ce']/(3.[df']/.[eg']/.[fa']/ (3.[g=b']/.[=ac'']/.[=bd'']/(3.[c'e'']/.[EG]/.[CE]/ | %14
 (3.[=B,D]/.[CE]/.[DF]/(3.[EG]/.[FA]/.[G=B]/ (3.[=Ac]/.[Bd]/.[ce]/(3.[df]/.[eg]/.[fa]/ | %15
 (3.[d=b]/.G,/.[=Bd']/(3.[ce']/.[df']/.[eg']/ (3.[fa']/.[g=b']/.[=ac'']/(3.[bd'']/.[DF]/.[=B,D]/ | %16
 (3.[CE]/a/g/(3.[CE]/a/g/ (3.[B,E]/a/g/(3.[B,E]/a/g/ | %17
 (3.[A,E]/g/f/(3.[A,E]/g/f/ (3.[ac']/.[fa]/.[cf]/(3.[Ac]/.[CA]/.[A,F]/ | %18
 (3.[=A,E]/g/f/(3.[A,E]/g/f/ (3.[ec']/.[c=a]/.[Af]/(3.[Fc]/.[E=A]/.[CE]/ | %19
 (3.[B,D]/[=ac']/[bd']/(3[d'f']/[c'e']/[bd']/ (3[_ad']/[a_c']/[ab]/(3[ad']/[ac']/[ab]/ | %20
 (3[gb]/[ge']/[fd']/(3[ec']/[db]/[c=a]/ (3[Bg]/[=Af]/[Fe]/(3[Fc]/[EA]/[CE]/ | %21
 (3[B,D]/[=Ac]/[Bd]/(3[df]/[ce]/[Bd]/ (3[_Ad]/[A_c]/[AB]/(3[Ad]/[Ac]/[AB]/ | %22
 (3[GB]/[Ge]/[Fd]/(3[Ec]/[DB]/[C=A]/ (3[B,G]/[=A,F]/[ef]/(3[cf]/[ce]/[CE]/ | %23
 [B,D]2 B/[B,DB]/[CEB]/[DFB]/ | [EGB]2 [E_G=A]/[EGA]/[DFA]/[CEA]/ | [CE=A]2 T[B,DB][CEA] | %26
 [CE=A]2 T[B,DB][CEA] | =A/8B/8c/8 !fermata![B,DB]3 z/ z/8 | %28
 [gb]/4e'/4[^f=a]/4e'/4[gb]/4e'/4[fa]/4e'/4 [gb]/4e'/4[fa]/4e'/4[gb]/4e'/4[fa]/4e'/4 | %29
 [gb]/4[eg]/4[fa]/4[gb]/4[ac']/4[bd']/4[c'e']/4[d'f']/4 [e'g']/4[d'f']/4[c'e']/4[bd']/4[ac']/4[gb]/4[fa]/4[eg]/4 | %30
 [DB]/4F/4[E=A]/4_G/4[DB]/4F/4[EA]/4G/4 [DB]/4F/4[EA]/4G/4[DB]/4F/4[EA]/4G/4 | %31
 [DB]/4[Bd]/4[df]/4[ce]/4[Bd]/4[df]/4[fa]/4[eg]/4 [fa]/4[eg]/4[df]/4[ce]/4[Bd]/4[Ac]/4[GB]/4[FA]/4 | %32
 [G,E]/4B,/4[_CD]/4A,/4[G,E]/4B,/4[CD]/4A,/4 [G,E]/4B,/4[CD]/4A,/4[G,E]/4B,/4[CD]/4A,/4 | %33
 [G,E]/4B,/4[_CD]/4A,/4[G,E]/4B,/4[_D=E]/4B,/4 [=A,F]/4C/4[DE]/4B,/4[A,F]/4C/4[E^F]/4C/4 | %34
 [=B,G]/4D/4[E^F]/4C/4[B,G]/4D/4[=FG]/4D/4 [CA]/4E/4[F=A]/4E/4B/4F/4[_AB]/4F/4 | %35
 [EB]/4G/4[=EB]/4G/4[FB]/4d/4[_GB]/4e/4 [=Ac]/4[ce]/4[ce]/4[e_g]/4[eg]/4[g=a]/4[ga]/4[ac']/4 | %36
 B,/4[eg']/4[df']/4[ce']/4[Bd']/4[Ac']/4[Gb]/4[Fa]/4 [Gg]/4[Aa]/4[Bb]/4[cc']/4[dd']/4[ee']/4[ff']/4[gg']/4 | %37
 T[B,F]2 T[db]2 | %38
 e/4e'/4[g=b]/4e'/4[ac']/4e'/4[^f=a]/4d'/4 [g_b]/4d'/4[=eg]/4c'/4[=f_a]/4c'/4[df]/4b/4 | %39
 [eg]/4b/4[ce]/4a/4[df]/4a/4[=Bd]/4g/4 [ce]/4g/4[=Ac]/4f/4[Bd]/4f/4[Gf]/4d/4 | %40
 [A_d]/4c/4[Gc]/4e/4[^Fe]/4=d/4[=Ad]/4c/4 [Gc]/4B/4[FB]/4_d/4[=Ed]/4c/4[Gc]/4B/4 | %41
 [FA]/4[GB]/4[Ac]/4[GB]/4[FA]/4[EG]/4[DF]/4[CE]/4 [B,D]/4[af']/4[fd']/4[db]/4[Ba]/4[Af]/4[Fd]/4[A,D]/4 | %42
 [G,E]/4[Gb]/4[Ac']/4[Bd']/4[ce']/4[df']/4[eg']/4[fa']/4 [gb']/4[fa']/4[eg']/4[df']/4[ce']/4[Bd']/4[Ac']/4[Gb]/4 | %43
 [A,E]/4[CE]/4[EA]/4[Ec]/4[ce]/4[ea]/4[ac']/4[c'e']/4 [=ac']/4_g'/4[_ga]/4e'/4[eg]/4c'/4[ce]/4a/4 | %44
 B/[d^f']/4[eg']/4[^c=e']/4[d=f']/4[=Bd']/4[=c_e']/4 [=A^c']/4[_Bd']/4[G=b]/4[_A=c']/4[^F=a]/4[G_b]/4[=Eg]/4[=F_a]/4 | %45
 T[B,Fd]2 T[Fdb]2 | [G,E]2 E/[G,Ee]/[G,Ed]/[G,E_d]/ | [A,E_d]2 c/[=A,Ff]/[A,F=e]/[A,F_e]/ | %48
 [B,Fe]2 d/[DBb]/[DB=a]/[DB_a]/ | [EBa]/g/[=A,_Gc]/e/ [B,=Ge]/B/[B,A]/F/ | %50
 [G,E]2 [_CE]/[CD]/[B,D]/[A,D]/ | [G,E]2 [_CE]/[CD]/[B,D]/[A,D]/ | [A,D]4 | [G,E]2 z2 | %54
 [B,=E]2 _D/[DE]/[CE]/[B,E]/ | [A,F]2 A/[A,A]/[A,G]/[A,F]/ | [B,=E]4 | %57
 [A,F]2 A/[A,A]/[A,G]/[A,F]/ | [A,_Gc]2 e/[A,Ge]/[A,G_d]/[A,Gc]/ | %59
 [A,F_d]2 f/[A,Ff]/[A,Fe]/[A,Fd]/ | [=A,Fc]2 C/[CFd]/[B,Fd]/[A,Fd]/ | %61
 [B,F_d]2 _D/[DFd]/[CFd]/[B,Fd]/ | [_G_db]2 _d'/[Gdd']/[Gdc']/[Gdb]/ | %63
 [F_db]2 _d'/[Fdd']/[Fdc']/[Fdb]/ | [=E_db]2 _d'/[Edd']/[Edc']/[Edb]/ | %65
[Q:1/4=65] [Fc=a]/[Ff]/[_G_g]/[=E=e]/ [Ff]/[Dd]/[_E_e]/[Cc]/ | %66
 [_D_d]/[=B,=B]/[Cc]/[=A,=A]/ [_B,_B]/[_Gdb]/[Fdb]/[=Edb]/ | %67
 [Fc=a]/[ff']/[_g_g']/[=e=e']/ [ff']/[dd']/[_e_e']/[cc']/ | %68
 [_d_d']/[=B=b]/[cc']/[=A=a]/ [_B_b]/[_Gdb]/[Fdb]/[Edb]/ | %69
 [Fc=a]/[_G_db]/[Fdb]/[=Edb]/ [Fca]/[D_c_a]/[Dc_g]/[Dcf]/ | %70
[Q:1/4=40] [EBa]_g C/[C=Ag]/[CAf]/[CAe]/ | [_DA_g]f _G/[Gb]/[Gg]/[Ge]/ | [A,F_d]2 T[A,Ec]2 | %73
[Q:1/4=30] _D2- D/A,/D/E/ | [_D_F]2- [DF]/[A,E]/[DF]/[E_G]/ | [_FA]2- [FA]/[EA]/[DA]/[EB]/ | %76
 [E-A]2 [E_G]/B,/E/F/ | [E_G]2- [EG]/[B,F]/[EG]/[FA]/ |[K:B] [F_B]2- [FB]/[=FB]/[EB]/[CB]/ | %79
!ff! [B,Fd]2 [B,Fd]/[DFf]/[CFe]/[B,Fd]/ | [A,=Gc]2 [A,Gc]/[A,Fe]/[A,Fd]/[A,Fc]/ | %81
 [=A,D=c]2- [A,Dc]/[A,Dd]/[A,D^c]/[A,DB]/ |[Q:1/4=50] [G,-E-B]>[G,Ee] [=A,Ec]/e/[^A,Fc]/f/ | %83
 [B,Fd]/f/[^B,Gd]/g/ [C=Ae]/=a/[DBf]/b/ |[Q:1/4=40] [EBg]2 b/[EBb]/[EBa]/[EBg]/ | %85
 [EBg]2 b/[EBb]/[EBa]/[EBg]/ |[K:Eb] [D=Bg-]2 g/[DBa]/[DBg]/[DBf]/ | [D=Bg]2 g/[DBa]/[DBg]/[DBf]/ | %88
 [C-G-f][CGe] B,/[B,Gf]/[B,Ge]/[B,Gd]/ | [A,Ed][A,Ec] [A,^F]/[A,Fe]/[A,Fd]/[A,Fc]/ | %90
 [G,G=B]2 [A,^Fc]/[A,Fe]/[A,Fd]/[A,Fc]/ | %91
[Q:1/4=60] [G,G=B]/[^f^f']/[gg']/[^c^c']/ [dd']/[_Bb]/[=B=b]/[Gg]/ | %92
[K:C][Q:1/4=20] !fermata!G,2 z2 | %93
[Q:1/4=40]!mf! [eg]/4c'/4[^d^f]/4c'/4[eg]/4c'/4[df]/4c'/4 [eg]/4c'/4[df]/4c'/4[eg]/4c'/4[df]/4c'/4 | %94
 [eg]/4[ce]/4[df]/4[eg]/4[fa]/4[gb]/4[ac']/4[bd']/4 [c'e']/4[bd']/4[ac']/4[gb]/4[fa]/4[eg]/4[df]/4[ce]/4 | %95
 [Bg]/4d/4[c^f]/4_e/4[Bg]/4d/4[cf]/4e/4 [Bg]/4d/4[cf]/4e/4[Bg]/4d/4[cf]/4e/4 | %96
 [Bg]/4[Bd]/4[ce]/4[df]/4[eg]/4[fa]/4[gb]/4[ac']/4 [bd']/4[ac']/4[gb]/4[fa]/4[eg]/4[df]/4[ce]/4[Bd]/4 | %97
 [Ec]/4G/4[_AB]/4F/4[Ec]/4G/4[AB]/4F/4 [Ec]/4G/4[AB]/4F/4[Ec]/4G/4[AB]/4F/4 | %98
 [Ec]/4G/4[_AB]/4F/4[Ec]/4G/4[_B^c]/4G/4 [^Fd]/4A/4[Bc]/4G/4[Fd]/4A/4[=c^d]/4A/4 | %99
 [^Ge]/4B/4[c^d]/4A/4[Ge]/4B/4[=de]/4B/4 [Af]/4c/4[d^f]/4c/4[Bg]/4d/4[=fg]/4d/4 | %100
 [cg]/4e/4[^cg]/4e/4[dg]/4b/4[_eg]/4c'/4 [^fa]/4[ac']/4[ac']/4[c'_e']/4[c'e']/4[e'^f']/4[e'f']/4[f'a']/4 | %101
 G,/4[ce']/4[Bd']/4[Ac']/4[Gb]/4[Fa]/4[Eg]/4[Df]/4 [Ce]/4[Df]/4[Eg]/4[Fa]/4[Gb]/4[Ac']/4[Bd']/4[ce']/4 | %102
 T[G,D]2 T[Bg]2 | %103
 c/4c'/4[e^g]/4c'/4[fa]/4c'/4[^d^f]/4b/4 [e=g]/4b/4[^ce]/4a/4[=d=f]/4a/4[Bd]/4g/4 | %104
 [ce]/4g/4[Ac]/4f/4[Bd]/4f/4[^GB]/4e/4 [Ac]/4e/4[^FA]/4d/4[=G_B]/4d/4[Ed]/4c/4 | %105
 [F_B]/4A/4[EA]/4c/4[^Dc]/4=B/4[^FB]/4A/4 [EA]/4G/4[=DG]/4_B/4[^CB]/4A/4[EA]/4G/4 | %106
 [DF]/4[EG]/4[FA]/4[EG]/4[DF]/4[CE]/4[B,D]/4[_A,F]/4 [G,F]/4[fd']/4[db]/4[Bg]/4[Gf]/4[Fd]/4[DB]/4[G,F]/4 | %107
 [CE]/4[ce']/4[df']/4[eg']/4[fa']/4[gb']/4[ac'']/4[bd'']/4 [c'e'']/4[bd'']/4[ac'']/4[gb']/4[fa']/4[eg']/4[df']/4[ce']/4 | %108
 [A,F]/4[CA]/4[Ac]/4[cf]/4[fa]/4[ac']/4[af']/4[ac']/4 [^fa]/4_e'/4[_ef]/4c'/4[ce]/4a/4[Ac]/4f/4 | %109
 G,/[b^d'']/4[c'e'']/4[^a^c'']/4[b=d'']/4[^gb']/4[=a=c'']/4 [^f^a']/4[=gb']/4[e^g']/4[=f=a']/4[^d^f']/4[e=g']/4[^ce']/4[=d=f']/4 | %110
 T[G,Bd]2 T[Bb]2 | [CGec']2 c'/[Ecc']/[Ecb]/[Ec_b]/ | [Fc_b]2 a/[^Fdd']/[Fd^c']/[Fd=c']/ | %113
 [Gdc']2 b/[GBg]/[Acg]/[Bdg]/ | [Bdg]/[ceg]/[^F_ea]/c'/ [G=ec']/g/[Gf]/d/ | [CEc]2 [C_AB]/A/G/F/ | %116
 [CEc]2 [C_AB]/A/G/F/ | [CEc] z [G,Gdb] z |[Q:1/4=20] [CGec']2 z2 | z4 |] %120

